X:11828
T:Nina
R:
O:Alsace - Elsass
A:
S:
B:Chansons populaires de l'Alsace
Z:transcription (partition) : eric.forgeot@caramail.com
N:Weckerlin II - p. 16
N:
M:6/8
L:1/8
Q:1/4=130
K:F
c3 G3 | F>F F G>G G | A3 G3 | c c c G2 G | A>G A F3 |
c c c G2G | A>G A F3 | F2 G A>A A | G G c F2 z ||
W:Nina, s'fahret ä Birele d d'r Rhin na, Hat ä se scheni Heselen a,
W:Un ä so scheni Knepfeledra, unser Biäwlä müäss oi äis so ha.


